public/assets/icons/scan.svg

<svg width="20" height="20" viewBox="0 0 20 20" fill="none" xmlns="http://www.w3.org/2000/svg">
<path fill-rule="evenodd" clip-rule="evenodd" d="M7.02276 2.5C7.37276 2.5 7.65692 2.77865 7.65692 3.12268C7.65692 3.46589 7.37359 3.74455 7.02276 3.74455L5.66526 3.74536C4.53859 3.747 3.62192 4.6467 3.62192 5.75233V7.30167C3.62192 7.64488 3.33692 7.92436 2.98692 7.92436C2.63692 7.92436 2.35276 7.64488 2.35276 7.30167V5.75233C2.35276 3.96109 3.83859 2.50245 5.66442 2.50082L7.02192 2.5H7.02276ZM13.0002 2.50025H14.3277C16.1585 2.50025 17.6468 3.95971 17.6468 5.75502V7.30192C17.6468 7.64513 17.3635 7.9246 17.0127 7.9246C16.6627 7.9246 16.3785 7.64513 16.3785 7.30192V5.75502C16.3785 4.64613 15.4585 3.74397 14.3277 3.74397H13.0002C12.6502 3.74397 12.366 3.46614 12.366 3.12293C12.366 2.7789 12.6502 2.50025 13.0002 2.50025ZM12.3018 5.61888H7.69842C6.64509 5.6295 5.79842 6.47364 5.80759 7.50735V8.54516C5.81009 8.6661 5.90926 8.76497 6.03259 8.76906H13.9659C14.0901 8.76579 14.1893 8.66691 14.1934 8.54516V7.50735C14.1943 7.00807 13.9976 6.52839 13.6426 6.17129C13.2901 5.81745 12.8059 5.61888 12.3018 5.61888ZM1.46801 10.0344H18.5322C18.8822 10.0344 19.1663 10.313 19.1663 10.657C19.1663 11.0003 18.8822 11.2781 18.5322 11.2781H17.6472V14.2444C17.6472 16.0405 16.158 17.5 14.328 17.5H13.0005C12.6497 17.5 12.3655 17.2213 12.3655 16.8773C12.3655 16.5341 12.6497 16.2555 13.0005 16.2555H14.328C15.4588 16.2555 16.3788 15.3541 16.3788 14.2444V11.2781H14.193V12.1042C14.2013 13.138 13.3555 13.9829 12.3013 13.9927H7.69801C6.64467 13.9829 5.79884 13.138 5.80717 12.1042V11.2781H3.62134V14.2477C3.62134 15.3533 4.53884 16.253 5.66634 16.2546L7.02301 16.2555C7.37301 16.2555 7.65717 16.5341 7.65717 16.8773C7.65634 17.2213 7.37301 17.5 7.02217 17.5L5.66467 17.4992C3.83884 17.4975 2.35217 16.0389 2.35217 14.2477V11.2781H1.46801C1.11801 11.2781 0.833008 11.0003 0.833008 10.657C0.833008 10.313 1.11801 10.0344 1.46801 10.0344Z" fill="#7986AC"/>
</svg>

<?xml version="1.0"?>
<svg width="20" height="20" xmlns="http://www.w3.org/2000/svg" xmlns:svg="http://www.w3.org/2000/svg">
 <g class="layer">
  <title>Layer 1</title>
  <path clip-rule="evenodd" d="m7.02,2.5c0.35,0 0.64,0.28 0.64,0.62c0,0.35 -0.29,0.62 -0.64,0.62l-1.35,0.01c-1.13,0 -2.05,0.9 -2.05,2l0,1.55c0,0.34 -0.28,0.62 -0.63,0.62c-0.35,0 -0.64,-0.28 -0.64,-0.62l0,-1.55c0,-1.79 1.49,-3.25 3.31,-3.25l1.36,0l0,0zm5.98,0l1.33,0c1.83,0 3.32,1.46 3.32,3.26l0,1.54c0,0.35 -0.29,0.62 -0.64,0.62c-0.35,0 -0.63,-0.27 -0.63,-0.62l0,-1.54c0,-1.11 -0.92,-2.02 -2.05,-2.02l-1.33,0c-0.35,0 -0.63,-0.27 -0.63,-0.62c0,-0.34 0.28,-0.62 0.63,-0.62zm-0.7,3.12l-4.6,0c-1.05,0.01 -1.9,0.85 -1.89,1.89l0,1.04c0,0.12 0.1,0.21 0.22,0.22l7.94,0c0.12,0 0.22,-0.1 0.22,-0.22l0,-1.04c0,-0.5 -0.19,-0.98 -0.55,-1.34c-0.35,-0.35 -0.83,-0.55 -1.34,-0.55zm-10.83,4.41l17.06,0c0.35,0 0.64,0.28 0.64,0.63c0,0.34 -0.29,0.62 -0.64,0.62l-0.88,0l0,2.96c0,1.8 -1.49,3.26 -3.32,3.26l-1.33,0c-0.35,0 -0.63,-0.28 -0.63,-0.62c0,-0.35 0.28,-0.62 0.63,-0.62l1.33,0c1.13,0 2.05,-0.91 2.05,-2.02l0,-2.96l-2.19,0l0,0.82c0.01,1.04 -0.83,1.88 -1.89,1.89l-4.6,0c-1.06,-0.01 -1.9,-0.85 -1.89,-1.89l0,-0.82l-2.19,0l0,2.97c0,1.1 0.92,2 2.05,2l1.35,0.01c0.35,0 0.64,0.27 0.64,0.62c0,0.34 -0.29,0.62 -0.64,0.62l-1.36,0c-1.82,0 -3.31,-1.46 -3.31,-3.25l0,-2.97l-0.88,0c-0.35,0 -0.64,-0.28 -0.64,-0.62c0,-0.35 0.29,-0.63 0.64,-0.63z" fill="#000000" fill-rule="evenodd" id="svg_1"/>
 </g>
</svg>
